X: 383
T: 9.e La Nacr\'eon
T: la Nacr\'eon
B: Robert Landrin "Potpourri fran\,cois des contre-danse ancienne tel quil se danse chez la Reine ..." 1760 p.38 #3 dance 12 #9
S: http://memory.loc.gov/cgi-bin/query/D?musdibib:2:./temp/~ammem_EbRS:
Z: 2014 John Chambers <jc:trillian.mit.edu>
M: 2/2
L: 1/8
K: G
% - - - - - - - - - - - - - - - - - - - - - - - - -
!segno!dedc |\
BcBA G2D2 | G2G2 dedc |\
BcBA G2D2 | G4 |]| "1.F."g2d2 |\
g2d2 b2a2 | g4 g2d2 |\
g2d2 b2a2 | g4 f4 |\
f4 f2ed | e2e2 g4 |
f2ef gfef | d4 !segno!y |]| "1.F."g2d2 |\
g2d2 b2a2 | g4 g2d2 | g2d2 b2a2 | g4 e4 |\
e4 e2dc | d2d2 g4 |\
d2cd edcB | A4 !segno!y |]
% - - - - - - - - - - - - - - - - - - - - - - - - -
